packages/foundations/assets/icons/functional/images/transportation/boat_12_inverted.svg

<svg width="12" height="12" viewBox="0 0 12 12" fill="none" xmlns="http://www.w3.org/2000/svg">
<g clip-path="url(#clip0_2214_6680)">
<path fill-rule="evenodd" clip-rule="evenodd" d="M9.18468 7.94784C9.35033 8.11836 9.46953 8.23278 9.54227 8.29111C9.75423 8.46108 9.98866 8.59509 10.1789 8.59509C10.4606 8.59509 10.6889 8.82342 10.6889 9.10509C10.6889 9.38675 10.4606 9.61509 10.1789 9.61509C9.73388 9.61509 9.26968 9.40622 8.78632 8.98848C8.30522 9.40622 7.83609 9.61509 7.37892 9.61509C6.92175 9.61509 6.45749 9.40622 5.98612 8.98848C5.50275 9.40542 5.03634 9.61388 4.58686 9.61388C4.13739 9.61388 3.67061 9.40542 3.18652 8.98848C2.70753 9.40248 2.2443 9.61131 1.79684 9.61496C1.49231 9.61745 1.26892 9.38675 1.26892 9.10509C1.26892 8.84509 1.48606 8.58999 1.77892 8.59509C1.95517 8.59815 2.19056 8.478 2.43369 8.28753C2.60244 8.15532 2.73529 8.02187 2.80409 7.94143C3.01007 7.70055 3.38356 7.70391 3.58518 7.94846C3.6506 8.0278 3.77833 8.16018 3.94165 8.29128C4.15329 8.46117 4.41519 8.59551 4.58686 8.595C4.75853 8.59449 4.99159 8.47677 5.23337 8.28744C5.4023 8.15517 5.53538 8.02165 5.60435 7.94113C5.81029 7.70068 6.18326 7.70401 6.38488 7.94809C6.4505 8.02753 6.5785 8.16 6.74202 8.29118C6.95385 8.46112 7.20826 8.59552 7.38719 8.595C7.56612 8.59448 7.79184 8.47647 8.03329 8.28742C8.20226 8.15513 8.3354 8.02159 8.40441 7.94105C8.61029 7.70078 8.98301 7.70402 9.18468 7.94784ZM7.78651 3.30399C7.96904 3.54842 8.10243 3.79 8.19105 3.98886L10.1313 3.64687C10.5475 3.57359 10.8576 4.00488 10.68 4.36932L9.3423 6.47306C9.2123 6.67686 9.04119 6.72801 8.87871 6.70955C8.71623 6.6911 8.65986 6.62748 8.57396 6.62748C8.48806 6.62748 8.0689 7.49333 7.34867 7.49333C6.86851 7.49333 6.40133 7.24391 5.94712 6.74508C5.42327 7.24391 4.9341 7.49333 4.47962 7.49333C4.02514 7.49333 3.57851 7.28211 3.13972 6.85968C2.70862 7.37402 2.25502 7.63118 1.77892 7.63118C1.51892 7.63118 1.27289 7.4394 1.27289 7.18516L1.26892 6.13876C1.26892 5.63167 1.61166 5.1935 2.09436 5.06582L2.87637 4.91769C3.09319 4.8698 3.20011 4.53457 3.12276 3.7372L3.07438 3.34664C3.0365 3.08987 3.18652 2.82537 3.50327 2.76786L5.898 2.40868C6.67054 2.28452 7.30276 2.65622 7.78651 3.30399ZM6.13748 3.40792L4.14172 3.70308C4.17947 4.12677 4.16223 4.4406 4.11932 4.70572C6.13245 4.35119 7.13902 4.17393 7.13902 4.17393C6.76716 3.55826 6.43892 3.39365 6.13748 3.40792Z" fill="#1A1C1F"/>
</g>
<defs>
<clipPath id="clip0_2214_6680">
<rect width="12" height="12" fill="white"/>
</clipPath>
</defs>
</svg>

<svg xmlns="http://www.w3.org/2000/svg" width="12" height="12" fill="none"><g clip-path="url(#a)"><path fill="#1A1C1F" fill-rule="evenodd" d="M9.185 7.948q.248.256.357.343c.212.17.447.304.637.304a.51.51 0 1 1 0 1.02q-.668 0-1.393-.627-.72.627-1.407.627-.686 0-1.393-.627-.725.626-1.4.626-.673 0-1.4-.626-.718.621-1.39.627a.51.51 0 1 1-.017-1.02c.176.003.412-.117.655-.307a3 3 0 0 0 .37-.347.51.51 0 0 1 .781.007c.066.08.193.212.357.343.211.17.473.305.645.304.172 0 .405-.118.646-.308a3 3 0 0 0 .371-.346.51.51 0 0 1 .78.007c.066.08.194.212.358.343.212.17.466.305.645.304.18 0 .405-.119.646-.308.17-.132.302-.265.371-.346a.51.51 0 0 1 .78.007M7.787 3.304c.182.244.315.486.404.685l1.94-.342a.51.51 0 0 1 .549.722L9.342 6.473c-.13.204-.3.255-.463.237s-.22-.083-.305-.083c-.086 0-.505.866-1.225.866q-.72 0-1.402-.748-.786.748-1.467.748-.682 0-1.34-.633-.647.771-1.361.771c-.26 0-.506-.192-.506-.446L1.269 6.14c0-.507.343-.945.825-1.073l.782-.148c.217-.048.324-.383.247-1.18l-.049-.391a.503.503 0 0 1 .43-.58l2.394-.358c.773-.124 1.405.247 1.889.895m-1.65.104-1.995.295c.037.424.02.738-.023 1.003l3.02-.532c-.372-.616-.7-.78-1.002-.766" clip-rule="evenodd"/></g><defs><clipPath id="a"><path fill="#fff" d="M0 0h12v12H0z"/></clipPath></defs></svg>
